resources/svg/react-o.svg

<svg xmlns="http://www.w3.org/2000/svg" viewBox="0 0 15 15" fill="none"><path d="M14.5 7.58387C14.5 9.24072 11.366 10.5839 7.5 10.5839C3.63401 10.5839 0.5 9.24072 0.5 7.58387C0.5 5.92701 3.63401 4.58387 7.5 4.58387C11.366 4.58387 14.5 5.92701 14.5 7.58387Z" stroke="black"/><path d="M4.16589 13.7389C5.62274 14.5281 8.29645 12.4121 10.1378 9.01277C11.9791 5.61345 12.2908 2.21803 10.834 1.42888C9.37712 0.639735 6.70341 2.7557 4.86207 6.15502C3.02073 9.55434 2.70904 12.9498 4.16589 13.7389Z" stroke="black"/><path d="M10.834 13.7389C9.37714 14.5281 6.70343 12.4121 4.86209 9.01277C3.02075 5.61345 2.70906 2.21803 4.16591 1.42888C5.62276 0.639735 8.29647 2.7557 10.1378 6.15502C11.9792 9.55434 12.2908 12.9498 10.834 13.7389Z" stroke="black"/><path d="M6.5 7.58387C6.5 8.13615 6.94772 8.58387 7.5 8.58387C8.05228 8.58387 8.5 8.13615 8.5 7.58387C8.5 7.03158 8.05228 6.58387 7.5 6.58387C6.94772 6.58387 6.5 7.03158 6.5 7.58387Z" stroke="black"/></svg>

<svg xmlns="http://www.w3.org/2000/svg" viewBox="0 0 15 15" fill="none"><path d="M14.5 7.584c0 1.657-3.134 3-7 3s-7-1.343-7-3 3.134-3 7-3 7 1.343 7 3z" stroke="currentColor"/><path d="M4.166 13.739c1.457.79 4.13-1.327 5.972-4.726 1.841-3.4 2.153-6.795.696-7.584-1.457-.79-4.13 1.327-5.972 4.726-1.841 3.4-2.153 6.795-.696 7.584z" stroke="currentColor"/><path d="M10.834 13.739c-1.457.79-4.13-1.327-5.972-4.726-1.841-3.4-2.153-6.795-.696-7.584 1.457-.79 4.13 1.327 5.972 4.726 1.841 3.4 2.153 6.795.696 7.584z" stroke="currentColor"/><path d="M6.5 7.584a1 1 0 102 0 1 1 0 00-2 0z" stroke="currentColor"/></svg>
